X: 18118
T: Humours Of Braade
R: jig
M: 6/8
K: Emixolydian
Bce|:f2 fB fga|g2 e2 cBA|B2 BE Bcd|c2 BA Bce|
f2 fB fga|g2 b2 bag|f2 fd faf|1 e2 B Bce:|2 e2 e2 b3||
|:be gb aba|af d2 g3|gf df efe|cA B2 Bce|
f2 fB fga|1 g2 e2 cBA|B2 BE cBA|BC ef/g/ b3:|
[2 g2 b2 bag|f2 fB faf|e2 e2 Bce||

